X:63
T:The Bit of Shit
B:Terry "Cuz" Teahan "Sliabh Luachra on Parade" 1980
Z:Patrick Cavanagh
M:2/4
L:1/8
R:Polka
K:D
B2 | AF ED | FA FA | GB/G/ FG | E2 cB | 
AF ED | FA FA | GE FE | D2 :| 
E2 | FA AB | A3 F | GA Bc | BA FE | 
FA AB | A4 | fe ed | e4 | 
FA AB | A3 F | GA Bc | d2 cB | 
AF ED | FA FA | GE/G/ FE | D4 || 

